fs/square_multiple_20_regular.svg

<svg viewBox="0 0 20 20" fill="none" xmlns="http://www.w3.org/2000/svg" height="1em" width="1em">
  <path d="M6.08539 4H5.05005C5.28168 2.85888 6.29056 2 7.50004 2H14C16.2092 2 18 3.79086 18 6V12.5C18 13.7095 17.1412 14.7184 16 14.95V13.9146C16.5826 13.7087 17 13.1531 17 12.5V6C17 4.34315 15.6569 3 14 3H7.50004C6.84693 3 6.29131 3.4174 6.08539 4ZM4.5 5C3.11929 5 2 6.11929 2 7.5V15.5C2 16.8807 3.11929 18 4.5 18H12.5C13.8807 18 15 16.8807 15 15.5V7.5C15 6.11929 13.8807 5 12.5 5H4.5ZM3 7.5C3 6.67157 3.67157 6 4.5 6H12.5C13.3284 6 14 6.67157 14 7.5V15.5C14 16.3284 13.3284 17 12.5 17H4.5C3.67157 17 3 16.3284 3 15.5V7.5Z" fill="#212121"/>
</svg>

<svg viewBox="0 0 20 20" fill="none" xmlns="http://www.w3.org/2000/svg" height="1em" width="1em">
  <path d="M6.085 4H5.05A2.5 2.5 0 0 1 7.5 2H14a4 4 0 0 1 4 4v6.5a2.5 2.5 0 0 1-2 2.45v-1.035a1.5 1.5 0 0 0 1-1.415V6a3 3 0 0 0-3-3H7.5a1.5 1.5 0 0 0-1.415 1ZM4.5 5A2.5 2.5 0 0 0 2 7.5v8A2.5 2.5 0 0 0 4.5 18h8a2.5 2.5 0 0 0 2.5-2.5v-8A2.5 2.5 0 0 0 12.5 5h-8ZM3 7.5A1.5 1.5 0 0 1 4.5 6h8A1.5 1.5 0 0 1 14 7.5v8a1.5 1.5 0 0 1-1.5 1.5h-8A1.5 1.5 0 0 1 3 15.5v-8Z" fill="#212121"/>
</svg>
